client/public/assets/icons/custom/custom50.svg

<?xml version="1.0"?><svg xmlns="http://www.w3.org/2000/svg" width="100" height="100" viewBox="0 0 100 100"><g fill="#fff"><path d="m76.6 56.3c-2.3 1.1-4.9 1.7-7.6 1.7-3.3 0-6.3-0.9-9-2.4-0.3-0.2-0.7-0.2-1 0-2.6 1.6-5.7 2.4-9 2.4s-6.3-0.9-9-2.4c-0.3-0.2-0.7-0.2-1 0-2.6 1.6-5.7 2.4-9 2.4-2.7 0-5.3-0.6-7.6-1.7-0.6-0.3-1.4 0.2-1.4 0.9v12.1c0 2.4 1.4 4.5 3.6 5.5 5 2.2 10.4 3.8 16.1 4.6 1.2 0.2 2.3-0.8 2.3-2v-7.5c0-3.3 2.7-5.9 5.9-5.9h0.1c3.3 0 5.9 2.7 5.9 5.9v7.5c0 1.2 1.1 2.1 2.3 2 5.6-0.8 11-2.4 16.1-4.6 2.2-1 3.6-3.1 3.6-5.5v-12.1c0.1-0.7-0.7-1.2-1.3-0.9z m-45.6-4.3c3.6 0 6.7-1.5 8.7-3.9 0.4-0.5 1.1-0.5 1.5 0 2 2.4 5.2 3.9 8.7 3.9 3.6 0 6.7-1.5 8.7-3.9 0.4-0.5 1.1-0.5 1.5 0 2 2.4 5.2 3.9 8.7 3.9 5.6 0 10.3-3.9 10.9-8.8 0.1-0.7-0.2-1.4-0.8-1.8l-25.3-20c-2.2-1.7-5.3-1.7-7.4 0l-25.5 20c-0.6 0.4-0.8 1.1-0.8 1.8 0.8 5 5.5 8.8 11.1 8.8z"></path></g></svg>

<?xml version="1.0" encoding="utf-8"?>
<!-- Generator: Adobe Illustrator 16.0.0, SVG Export Plug-In . SVG Version: 6.00 Build 0)  -->
<!DOCTYPE svg PUBLIC "-//W3C//DTD SVG 1.1//EN" "http://www.w3.org/Graphics/SVG/1.1/DTD/svg11.dtd">
<svg version="1.1" id="Layer_1" xmlns="http://www.w3.org/2000/svg" xmlns:xlink="http://www.w3.org/1999/xlink" x="0px" y="0px"
	 width="100px" height="100px" viewBox="0 0 100 100" enable-background="new 0 0 100 100" xml:space="preserve">
<g>
	<path fill="#FFFFFF" d="M76.6,56.3C74.3,57.4,71.7,58,69,58c-3.3,0-6.3-0.9-9-2.4c-0.3-0.199-0.7-0.199-1,0
		C56.4,57.2,53.3,58,50,58s-6.3-0.9-9-2.4c-0.3-0.199-0.7-0.199-1,0C37.4,57.2,34.3,58,31,58c-2.7,0-5.3-0.6-7.6-1.7
		C22.8,56,22,56.5,22,57.2v12.1c0,2.4,1.4,4.5,3.6,5.5c5,2.2,10.4,3.8,16.1,4.601c1.2,0.199,2.3-0.801,2.3-2v-7.5
		c0-3.301,2.7-5.9,5.9-5.9H50c3.3,0,5.9,2.7,5.9,5.9v7.5c0,1.199,1.1,2.1,2.3,2c5.6-0.801,11-2.4,16.1-4.601
		c2.2-1,3.601-3.1,3.601-5.5V57.2C78,56.5,77.2,56,76.6,56.3z"/>
	<path fill="#FFFFFF" d="M31,52c3.6,0,6.7-1.5,8.7-3.9c0.4-0.5,1.1-0.5,1.5,0c2,2.4,5.2,3.9,8.7,3.9c3.6,0,6.7-1.5,8.7-3.9
		c0.4-0.5,1.101-0.5,1.5,0c2,2.4,5.2,3.9,8.7,3.9c5.601,0,10.3-3.9,10.9-8.8c0.1-0.7-0.2-1.4-0.8-1.8L53.6,21.4
		c-2.199-1.7-5.3-1.7-7.399,0l-25.5,20c-0.6,0.4-0.8,1.1-0.8,1.8C20.7,48.2,25.4,52,31,52z"/>
</g>
</svg>
